X:1
T:Midnight Arp
M:4/4
L:1/16
Q:1/4=118
K:Am
%%MIDI program 81
|: A,CEA CAEA C2E2 A,2C2 | G,BDG BDGB D2G2 G,2B,2 |
F,ACF ACFA C2F2 F,2A,2 | E,G,BE G,BEG B,2E2 E,2G,2 |
A,CEA CAEA C2E2 A,2C2 | G,BDG BDGB D2G2 G,2B,2 |
F,ACF ACFA C2F2 F,2A,2 | E,4 G,4 B,4 E4 :|
